!!!SOCIAL_FUNCTION:	songs connected with legends
!!!PDT:	1929
!!!OTL: No_13_I_Have_Been_in_This_World_a_Long_Time.krn
!!!REG: Southwest
!!!LANG: Non-Tone
!!!LING_GROUP: Uto-Aztecan
**kern
*staff1
*clefF4
*k[b-e-a-d-g-]
*M2/4
8B-\
=1
8.B-\L
16c\Jk
4B-\
=2
8A-\L
8F\J
8F\L
8E-\J
=3
8.F\L
16E-\Jk
4D-\
=4
2D-\
=5
4D-\
4D-\
=6||
*M3/4
8BB-/L
8AA-/J
8AA-/
8r
4D-\
=7
4F\
8E-\L
8D-\J
4D-;\
=8||
*M2/4
2E-\
=9
4r
8F\L
8E-\J
=10||
*M3/4
4.F\
8E-\
8F\L
8E-\J
=11||
*M2/4
2F\
=12
8E-\
8r
8F\L
8E-\J
=13||
*M3/4
4A-\
8F\L
8E-\J
4E-\
=14
8D-/L
[8BB-/J
2BB-/]
=15
4E-\
8D-/L
8BB-/J
4BB-/
=16
2D-\
4D-\
=17
2.D-\
=18||
*M2/4
8D-/L
8BB-/J
4BB-/
=19||
*M3/4
2.D-\
=20
4E-\
4E-\
4E-\
=21||
*M2/4
8E-\L
8E-\J
4D-\
=22||
*M3/4
8E-\L
8E-\J
4E-\
8D-\
8r
=23||
*M2/4
4E-\
8E-\L
8D-\J
=24||
*M3/4
4E-\
2E-\
=25
2.E-\
==
*-
